X: 495
T: Duke of Clarence's Waltz
%R: waltz
B: "Preston's Twenty Four Country Dances for the Year 1803", Tho. Preston, ed. p.208 #1
F: http://folkopedia.efdss.org/images/archive/0/02/20121211105513%21Preston_24_1803.PDF
F: http://folkopedia.efdss.org/wiki/File:Preston_24_1803.PDF
Z: 2011,2014 John Chambers <jc:trillian.mit.edu>
M: 3/8
L: 1/16
K: C
|:\
!p!e4(ce) | (ed).B.d(ce) | (ed).B.d(ce) | g3ag2 |\
e4(ce) | (ed).B.d(ce) | (ed).f.d(Bd) | c3eg2 :|
|:\
!f!c'2gege | cegec'2 | (a4g2) | (^f4g2) |\
c'2(gege) | (cege)c'2 | (f4d2) | B4 c2 :|
|:\
!f!c2(GE)!p!(GE) | !f!c2(GE)!p!(GE) | .c2(cG)(ce) | (dc)BAG2 |\
.c2(GE)(GE) | .c2(GE)(GE) | .c2(cGce) | (dfdB)c2 :|
|:\
d2(BG)(BG) | f2(dB)(dB) | ec(ge)(ge) | (ed)cBAG |\
c2(GE)(GE) | c2(GE)(GE) | c2(cG)ce | d2(fdBc) :|
% - - - - - - - - - - - - - - - - - - - - - - - - -
%%begintext align
%% Set to the 2d Lady & hands 3 round, the same with
%% the Gentn lead down the middle up again right &
%% left at top, swing corners hands across below,
%% Allemand.
%%endtext

%%sep 1 1 500
%%sep 1 1 500
